symbols/web/brightness_1/materialsymbolsoutlined/brightness_1_gradN25_48px.svg

<svg xmlns="http://www.w3.org/2000/svg" height="48" width="48"><path d="M24 43.75q-4.05 0-7.65-1.575-3.6-1.575-6.275-4.25Q7.4 35.25 5.825 31.65 4.25 28.05 4.25 24q0-4.1 1.575-7.7 1.575-3.6 4.25-6.275Q12.75 7.35 16.35 5.8q3.6-1.55 7.65-1.55 4.1 0 7.7 1.55 3.6 1.55 6.275 4.225Q40.65 12.7 42.2 16.3q1.55 3.6 1.55 7.7 0 4.05-1.55 7.65-1.55 3.6-4.225 6.275Q35.3 40.6 31.7 42.175 28.1 43.75 24 43.75Zm0-2.9q7.05 0 11.975-4.925T40.9 24q0-7.05-4.925-11.975T24 7.1q-6.95 0-11.9 4.925T7.15 24q0 6.95 4.925 11.9T24 40.85ZM24 24Z"/></svg>

<svg xmlns="http://www.w3.org/2000/svg" height="48" width="48"><path d="M24 43.75Q19.95 43.75 16.35 42.175Q12.75 40.6 10.075 37.925Q7.4 35.25 5.825 31.65Q4.25 28.05 4.25 24Q4.25 19.9 5.825 16.3Q7.4 12.7 10.075 10.025Q12.75 7.35 16.35 5.8Q19.95 4.25 24 4.25Q28.1 4.25 31.7 5.8Q35.3 7.35 37.975 10.025Q40.65 12.7 42.2 16.3Q43.75 19.9 43.75 24Q43.75 28.05 42.2 31.65Q40.65 35.25 37.975 37.925Q35.3 40.6 31.7 42.175Q28.1 43.75 24 43.75ZM24 24Q24 24 24 24Q24 24 24 24Q24 24 24 24Q24 24 24 24Q24 24 24 24Q24 24 24 24Q24 24 24 24Q24 24 24 24ZM24 40.85Q31.05 40.85 35.975 35.925Q40.9 31 40.9 24Q40.9 16.95 35.975 12.025Q31.05 7.1 24 7.1Q17 7.1 12.075 12.025Q7.15 16.95 7.15 24Q7.15 31 12.075 35.925Q17 40.85 24 40.85Z"/></svg>
